X: 596
T: Celia Connellan.
T: si.gile ni conallain.
R:air
N:Slow.
B:O'Neill's 596
Z:Transcription by John Walsh (walsh@math.ubc.ca)
M:2/4
L:1/16
%Q:50
K:Dm
(A/B/ AG)|(A2d2) (.d2d/e/f/e/)|{^c}d4 .d2(=cA)|{^B}c4 (GF)(GA)|{=B}c4 (dc) ({AB}AG)|
A2d2 (.d2d/e/f/e/)|{^c}d4 .d2(=cA)|{=B}c4 T(E3D)|C2A,2 C2(DE)|F4 z2||
F2GA c2(A/G/F)|E4 (.A.G.F.E)|D3E D2A,2|D2E2 FGFG|HA2(de) (f2e2)|
{^c}d4 d2(=cA)|{=B}c4 .A2(GE)|(.G.F.E.D) D3D|HD6||


